X:4
T:Song of Storms
M:3/4
L:1/8
Q:1/4=120
K:C
%  v       v These notes marked (L)
|: DF d4 | DF d4 | e3 fef | ec A4 |
A2 D2 FG | [1 A6 | A2 D2 FG | E6 :| [2 A4 A2 | D6 ||
